!!!COM: Gaspar van Weerbeke
!!!CDT: ~1450-~1517
!!!OPR: Missa N'as tu pas
!!!OTL: Gloria
!!!OMV: 2
!!!AGN: Mass
!!!SCT: Gas0203b
!!!SCA: Gas0203b
!!!voices: 4
**kern	**text	**kern	**text	**kern	**text	**kern	**text
*part4	*part4	*part3	*part3	*part2	*part2	*part1	*part1
*staff4	*staff4	*staff3	*staff3	*staff2	*staff2	*staff1	*staff1
*I"Bassus	*	*I"Tenor	*	*I"Altus	*	*I"Superius	*
*I'B	*	*I'T	*	*I'A	*	*I'S	*
*>EtInTerraPax[A]	*>EtInTerraPax[A]	*>EtInTerraPax[A]	*>EtInTerraPax[A]	*>EtInTerraPax[A]	*>EtInTerraPax[A]	*>EtInTerraPax[A]	*>EtInTerraPax[A]
*>QuiTollis[B]	*>QuiTollis[B]	*>QuiTollis[B]	*>QuiTollis[B]	*>QuiTollis[B]	*>QuiTollis[B]	*>QuiTollis[B]	*>QuiTollis[B]
*>A	*>A	*>A	*>A	*>A	*>A	*>A	*>A
*clefF4	*	*clefGv2	*	*clefGv2	*	*clefG2	*
*k[b-]	*	*k[b-]	*	*k[b-]	*	*k[b-]	*
*M2/2	*	*M2/2	*	*M2/2	*	*M2/2	*
*met(C|)	*	*met(C|)	*	*met(C|)	*	*met(C|)	*
!!section: Et in terra pax
=1	=1	=1	=1	=1	=1	=1	=1
2F	Et	2F	Et	2c	Et	2f	Et
.	.	.	.	.	.	.	.
.	.	.	.	.	.	.	.
.	.	.	.	.	.	.	.
4F	in	4F	in	4c	in	4f	in
.	.	.	.	.	.	.	.
[4D	ter-	[4F	ter-	[4f	ter-	[4a	ter-
.	.	.	.	.	.	.	.
=2	=2	=2	=2	=2	=2	=2	=2
4D]	.	4F]	.	4f]	.	4a]	.
.	.	.	.	.	.	.	.
4BB-y	-ra	4G	-ra	4d	-ra	4b-y	-ra
[2AA	pax	[2A	pax	2c	pax	4.cc	pax
.	.	.	.	.	.	8b-y	.
=3	=3	=3	=3	=3	=3	=3	=3
4AA]	.	4A]	.	4r	.	4a	.
*	*edit	*	*edit	*	*edit	*	*edit
4F	ho-	4A	ho-	4c	ho-	4cc	ho-
4F	-mi-	4A	-mi-	4f	-mi-	4cc	-mi-
4F	-ni	4A	-ni-	4f	-ni-	4cc	-ni-
=4	=4	=4	=4	=4	=4	=4	=4
*	*	*lig	*	*	*	*	*
*	*	*	*	*col	*	*	*
2G	bus	2B-y	-bus	4.d	-bus	2b-y	-bus
.	.	.	.	8e	.	.	.
*	*	*	*	*Xcol	*	*	*
2F	.	2c	.	[2f	.	2a	.
*	*	*Xlig	*	*	*	*	*
=5	=5	=5	=5	=5	=5	=5	=5
2D	bo-	4.d	bo-	2f]	.	2a	bo-
.	.	8c	.	.	.	.	.
4F	-ne	4.A	.	4f	bo-	4a	-ne
4F	vo-	.	.	4f	-ne	4a	vo-
.	.	8B-y	.	.	.	.	.
!!LO:LB:g=original
=6	=6	=6	=6	=6	=6	=6	=6
*lig	*	*	*	*	*	*	*
2C	-lun-	2c	-ne	4.e	vo-	4.g	-lun-
.	.	.	.	8c	.	8a	.
2BB-y	.	2r	.	4d	.	8b-yL	.
.	.	.	.	.	.	8ccJ	.
.	.	.	.	4f	-lun-	[4dd	.
*Xlig	*	*	*	*	*	*	*
=7	=7	=7	=7	=7	=7	=7	=7
*lig	*	*	*	*	*	*	*
2C	-ta-	4.G	vo-	4e	-ta-	4dd]	.
.	.	.	.	4c	.	2cc	-ta-
.	.	8A	-lun-	.	.	.	.
2G	.	4B-y	-ta-	2d	.	.	.
.	.	4G	.	.	.	4bni	.
*Xlig	*	*	*	*	*	*	*
=8	=8	=8	=8	=8	=8	=8	=8
2.C	-tis.	2.G	-tis.	2.c	-tis.	2cc	-tis.
.	.	.	.	.	.	4r	.
*	*Xedit	*	*Xedit	*	*	*	*Xedit
4F	Lau-	4A	Lau-	4c	Lau-	4cc	Lau-
=9	=9	=9	=9	=9	=9	=9	=9
4F	-da-	4A	-da-	4c	-da-	4cc	-da-
4F	-mus	4A	-mus	4c	-mus	4cc	-mus
*	*	*	*	*col	*	*	*
[2F	te.	[2A	te.	4.f	te.	4.cc	te.
.	.	.	.	8e	.	8b-y	.
*	*	*	*	*Xcol	*	*	*
=10	=10	=10	=10	=10	=10	=10	=10
4F]	.	4A]	.	4c	.	4a	.
*	*edit	*	*edit	*	*	*	*edit
4F	Be-	4A	Be-	4f	Be-	4cc	Be-
4F	-ne-	4A	-ne-	4f	-ne-	4cc	-ne-
[4F	-di-	[4A	-di-	[4f	-di-	4cc	-di-
=11	=11	=11	=11	=11	=11	=11	=11
4F]	.	4A]	.	4f]	.	2cc	-ci-
4F	-ci-	4A	-ci-	8cL	-ci-	.	.
.	.	.	.	8dJ	.	.	.
4G	-mus	4B-y	-mus	4e	-mus	4b-y	-mus
4F	te.	4c	te.	4f	te.	4a	te.
!!LO:LB:g=original
=12	=12	=12	=12	=12	=12	=12	=12
4r	.	1r	.	1r	.	4f	A-
4C	A-	.	.	.	.	4g	-do-
4C	-do-	.	.	.	.	4a	-ra-
4C	-ra-	.	.	.	.	4g	-mus
=13	=13	=13	=13	=13	=13	=13	=13
4.C	-mus	1r	.	4r	.	2e	te.
.	.	.	.	4c	Glo-	.	.
8BB-y	.	.	.	.	.	.	.
2AA	te.	.	.	4c	-ri-	2r	.
.	.	.	.	4c	-fi-	.	.
=14	=14	=14	=14	=14	=14	=14	=14
4C	Glo-	1r	.	4.A	-ca-	1r	.
4C	-ri-	.	.	.	.	.	.
.	.	.	.	8G	.	.	.
4C	-fi-	.	.	4E	.	.	.
[4C	-ca-	.	.	[4A	.	.	.
=15	=15	=15	=15	=15	=15	=15	=15
8CL]	.	1r	.	4A]	.	1r	.
8AAJ	.	.	.	.	.	.	.
4BB-y	-mus	.	.	4G	-mus	.	.
2AA	te.	.	.	2A	te.	.	.
=16	=16	=16	=16	=16	=16	=16	=16
*	*Xedit	*	*	*	*	*	*
4.F	Gra-	4.c	Gra-	4.A	Gra-	1r	.
8F	-ti-	8c	-ti-	8A	-ti-	.	.
4F	-as	4c	-as	4A	-as	.	.
*	*edit	*	*	*	*	*	*
4F	a-	4c	a-	4A	a-	.	.
=17	=17	=17	=17	=17	=17	=17	=17
4E	-gi-	4c	-gi-	4G	-gi-	1r	.
4F	-mus	4c	-mus	4A	-mus	.	.
4E	ti-	4c	ti-	4G	ti-	.	.
4C	-bi	4c	-bi	4E	-bi	.	.
!!LO:PB:g=original
=18	=18	=18	=18	=18	=18	=18	=18
*	*	*	*	*	*	*	*Xedit
4.F	pro-	2c	pro-	4.A	pro-	4.a	Pro-
8F	-pter	.	.	8B-y	.	8g	-pter
4F	ma-	4A	-pter	8cL	.	4a	ma-
.	.	.	.	8dJ	.	.	.
4E	-gnam	4c	ma-	4e	.	4g	-gnam
=19	=19	=19	=19	=19	=19	=19	=19
*	*	*	*	*	*	*	*edit
4F	glo-	4c	-gnam	4A	-pter	4a	glo-
4E	-ri-	4.c	glo-	4e	ma-	4g	-ri-
2C	-am	.	.	4e	-gnam	4e	-am
.	.	8c	-ri-	.	.	.	.
.	.	4c	-am	[4e	glo-	[4cc	tu-
=20	=20	=20	=20	=20	=20	=20	=20
*lig	*	*	*	*	*	*	*
2AA	tu-	2c	tu-	8eL]	.	8ccL]	.
.	.	.	.	8eJ	-ri-	8bniJ	.
.	.	.	.	4e	-am	2a	.
2E	.	2Bni	.	2e	tu-	.	.
.	.	.	.	.	.	4g#i	.
*Xlig	*	*	*	*	*	*	*
=21	=21	=21	=21	=21	=21	=21	=21
2F	-am.	4A	-am.	2c	-am.	2a	-am.
.	.	4.c	Do-	.	.	.	.
*	*Xedit	*	*	*	*	*	*
4.F	Do-	.	.	4.f	Do-	4r	.
.	.	8B-y	-mi-	.	.	.	.
*	*	*	*	*	*	*	*Xedit
.	.	4A	-ne	.	.	[4cc	Do-
8F	-mi-	.	.	8f	-mi-	.	.
=22	=22	=22	=22	=22	=22	=22	=22
4F	-ne	2c	De-	4c	-ne	8ccL]	.
.	.	.	.	.	.	8ccJ	-mi-
2F	De-	.	.	2f	De-	4a	-ne
.	.	2A	-us,	.	.	2cc	De-
4F	-us,	.	.	[4c	-us,	.	.
!!LO:LB:g=original
=23	=23	=23	=23	=23	=23	=23	=23
*	*edit	*	*	*	*	*	*
2F	Rex	2c	Rex	8cL]	.	4a	-us,
.	.	.	.	8B-yJ	.	.	.
*	*	*	*	*	*	*	*edit
.	.	.	.	2A	Rex	4cc	Rex
4F	ce-	4A	ce-	.	.	8ccL	ce-
.	.	.	.	.	.	8b-y	.
[4F	-le-	[4c	-le-	[4f	ce-	8a	.
.	.	.	.	.	.	8gJ	.
=24	=24	=24	=24	=24	=24	=24	=24
4F]	.	4c]	.	8fL]	.	4a	.
.	.	.	.	8eJ	.	.	.
4G	.	4B-y	.	2d	.	2g	-le-
2D	.	2A	.	.	.	.	.
.	.	.	.	4d	-le-	4f#i	.
=25	=25	=25	=25	=25	=25	=25	=25
2GG	-stis,	2G	-stis,	2B-y	-stis,	2g	-stis,
2r	.	4G	De-	4B-y	De-	4b-y	De-
.	.	4A	-us	4c	-us	4a	-us
=26	=26	=26	=26	=26	=26	=26	=26
1r	.	4B-y	Pa-	4d	Pa-	4g	Pa-
.	.	4G	-ter	4B-y	-ter	4b-y	-ter
.	.	4A	om-	4c	om-	4a	om-
.	.	4B-y	.	4d	.	4g	.
=27	=27	=27	=27	=27	=27	=27	=27
2r	.	4G	.	4B-y	.	4b-y	.
.	.	2c	-ni-	4.e-i	-ni-	2a	-ni-
2C	om-	.	.	.	.	.	.
.	.	.	.	8d	.	.	.
.	.	8B-yL	.	[4c	.	8gL	.
.	.	8AJ	.	.	.	8fJ	.
!!LO:LB:g=original
=28	=28	=28	=28	=28	=28	=28	=28
4C	-ni-	4G	.	4c]	.	8eL	.
.	.	.	.	.	.	8dJ	.
4D	.	4F	.	4B-y	.	2f	-pot-
2C	-pot-	2G	-pot-	2c	-pot-	.	.
.	.	.	.	.	.	4e	.
=29	=29	=29	=29	=29	=29	=29	=29
2D	-ens.	2.F	-ens.	2A	-ens.	2.f	-ens.
2r	.	.	.	2r	.	.	.
*	*	*	*	*	*	*	*Xedit
.	.	[4c	Do-	.	.	[4a	Do-
=30	=30	=30	=30	=30	=30	=30	=30
1r	.	8cL]	.	1r	.	8aL]	.
.	.	8cJ	-mi-	.	.	8aJ	-mi-
.	.	4c	-ne	.	.	4a	-ne
.	.	4B-y	Fi-	.	.	4g	Fi-
.	.	4A	-li	.	.	4a	-li
=31	=31	=31	=31	=31	=31	=31	=31
4C	U-	1r	.	4A	U-	1r	.
4C	-ni-	.	.	4A	-ni-	.	.
2C	-ge-	.	.	2A	-ge-	.	.
=32	=32	=32	=32	=32	=32	=32	=32
4BB-y	-ni-	2r	.	4G	-ni-	2r	.
4AA	-te	.	.	4A	-te	.	.
2F	Je-	2A	Je-	2c	Je-	2a	Je-
=33	=33	=33	=33	=33	=33	=33	=33
2C	-su	2c	-su	2e	-su	2g	-su
2D	Chri-	2A	Chri-	2d	Chri-	2f	Chri-
!!LO:LB:g=original
=34	=34	=34	=34	=34	=34	=34	=34
1AA	-ste.	1A	-ste.	1c	-ste.	1e	-ste.
=35	=35	=35	=35	=35	=35	=35	=35
4r	.	2G	Do-	1r	.	1r	.
4C	Do-	.	.	.	.	.	.
4BB-y	-mi-	4B-y	-mi-	.	.	.	.
4C	-ne	[4A	-ne	.	.	.	.
=36	=36	=36	=36	=36	=36	=36	=36
4.E	De-	4A]	.	1r	.	1r	.
.	.	2c	De-	.	.	.	.
8F	.	.	.	.	.	.	.
2D	.	.	.	.	.	.	.
.	.	4Bni	.	.	.	.	.
=37	=37	=37	=37	=37	=37	=37	=37
2C	-us,	2c	-us,	4r	.	2g	A-
.	.	.	.	4c	A-	.	.
2r	.	2r	.	4B-y	.	4b-y	.
.	.	.	.	4c	-gnus	[4g	-gnus
=38	=38	=38	=38	=38	=38	=38	=38
1r	.	1r	.	4.e	De-	4g]	.
.	.	.	.	.	.	2cc	De-
.	.	.	.	8f	.	.	.
.	.	.	.	2d	-i,	.	.
.	.	.	.	.	.	4bni	.
=39	=39	=39	=39	=39	=39	=39	=39
4.C	Fi-	1r	.	4r	.	2cc	-i,
.	.	.	.	4c	Fi-	.	.
8D	.	.	.	.	.	.	.
4E	.	.	.	4.c	-li-	2r	.
[4F	-li-	.	.	.	.	.	.
.	.	.	.	8B-y	.	.	.
!!LO:PB:g=original
=40	=40	=40	=40	=40	=40	=40	=40
8FL]	.	2r	.	4.A	.	4r	.
8EJ	.	.	.	.	.	.	.
*	*	*	*	*	*	*	*edit
4F	.	.	.	.	.	4cc	Fi-
.	.	.	.	16GLL	.	.	.
.	.	.	.	16FJJ	.	.	.
2C	-us	4r	.	2E	-us,	4cc	-li-
.	.	4c	Fi-	.	.	8b-yL	.
.	.	.	.	.	.	8aJ	.
=41	=41	=41	=41	=41	=41	=41	=41
1r	.	4.c	-li-	2r	.	4a	.
.	.	.	.	.	.	8gL	.
.	.	8B-y	.	.	.	8fJ	.
.	.	4.A	.	4.c	Fi-	4e	.
.	.	.	.	.	.	4a	.
.	.	8G	.	8d	.	.	.
=42	=42	=42	=42	=42	=42	=42	=42
2C	Pa-	4E	.	4.e	-li-	4g	-us
.	.	4A	.	.	.	4cc	Pa-
.	.	.	.	8f	.	.	.
2r	.	4G	-us	4g	.	4b-y	.
.	.	[4c	Pa-	[4e	.	[4a	.
=43	=43	=43	=43	=43	=43	=43	=43
2C	-tris,	8cL]	.	8eL]	.	8aL]	.
.	.	8B-yJ	.	8dJ	.	8gJ	.
.	.	4A	.	4c	.	4f	.
2r	.	4G	.	4B-y	.	4e	.
.	.	4F	.	4c	-us	[4f	.
=44	=44	=44	=44	=44	=44	=44	=44
*lig	*	*	*	*	*	*	*
2C	Pa-	2G	.	4r	.	4f]	.
.	.	.	.	4c	Pa-	4e	.
2D	.	2F	.	4.A	.	4.f	.
.	.	.	.	8Bni	.	8g	.
*Xlig	*	*	*	*	*	*	*
=45	=45	=45	=45	=45	=45	=45	=45
1Cl	-tris.	1Gl	-tris.	1cl	-tris.	1el	-tris.
*	*Xedit	*	*	*	*	*	*
!!LO:LB:g=original
=46||	=46||	=46||	=46||	=46||	=46||	=46||	=46||
*>B	*>B	*>B	*>B	*>B	*>B	*>B	*>B
*M2/2	*	*M2/2	*	*M2/2	*	*M2/2	*
*met(C|)	*	*met(C|)	*	*met(C|)	*	*met(C|)	*
!!section: Qui tollis
2FF	Qui	1r	.	1r	.	1r	.
4FF	tol-	.	.	.	.	.	.
4FF	-lis	.	.	.	.	.	.
=47	=47	=47	=47	=47	=47	=47	=47
*	*edit	*	*	*	*Xedit	*	*
4FF	pec-	1r	.	2F	Qui	1r	.
2AA	-ca-	.	.	.	.	.	.
.	.	.	.	4F	tol-	.	.
[4BB-y	-ta	.	.	4F	-lis	.	.
=48	=48	=48	=48	=48	=48	=48	=48
*	*	*	*	*	*edit	*	*
4BB-]	.	1r	.	4F	pec-	1r	.
4C	.	.	.	2A	-ca-	.	.
2D	mun-	.	.	.	.	.	.
.	.	.	.	4B-y	-ta	.	.
=49	=49	=49	=49	=49	=49	=49	=49
2C	-di,	1r	.	8.cL	mun-	1r	.
.	.	.	.	16B-yk	.	.	.
.	.	.	.	8A	.	.	.
.	.	.	.	8GJ	.	.	.
*	*Xedit	*	*	*	*	*	*
2F	mi-	.	.	2A	-di,	.	.
=50	=50	=50	=50	=50	=50	=50	=50
4E	-se-	1r	.	4c	mi-	1r	.
4F	-re-	.	.	4c	-se-	.	.
4C	-re	.	.	4c	-re-	.	.
4E	no-	.	.	4c	-re	.	.
=51	=51	=51	=51	=51	=51	=51	=51
4D	.	1r	.	4B-y	no-	1r	.
4C	.	.	.	2A	.	.	.
2BB-y	-bis.	.	.	.	.	.	.
.	.	.	.	4G	.	.	.
!!LO:LB:g=original
=52	=52	=52	=52	=52	=52	=52	=52
*	*edit	*	*Xedit	*	*	*	*
2AA	Qui	2C	Qui	1A	-bis.	1r	.
[2AA	tol-	4C	tol-	.	.	.	.
.	.	4C	-lis	.	.	.	.
=53	=53	=53	=53	=53	=53	=53	=53
*	*	*	*edit	*	*	*	*Xedit
4AA]	.	4C	pec-	1r	.	2c	Qui
4AA	-lis	2E	-ca-	.	.	.	.
8CL	pec-	.	.	.	.	4c	tol-
8BB-y	.	.	.	.	.	.	.
8AA	.	[4F	-ta	.	.	4c	-lis
8GGJ	.	.	.	.	.	.	.
=54	=54	=54	=54	=54	=54	=54	=54
*	*	*	*	*	*	*	*edit
4FF	.	4F]	.	1r	.	4c	pec-
2C	-ca-	4G	.	.	.	2e	-ca-
.	.	2A	mun-	.	.	.	.
4D	.	.	.	.	.	4f	-ta
=55	=55	=55	=55	=55	=55	=55	=55
2GG	-ta.	2G	-di,	1r	.	8.gL	mun-
.	.	.	.	.	.	16fk	.
.	.	.	.	.	.	8e	.
.	.	.	.	.	.	8dJ	.
2r	.	2c	sus-	.	.	2e	-di,
=56	=56	=56	=56	=56	=56	=56	=56
*	*	*	*	*	*	*	*Xedit
1r	.	4c	-ci-	1r	.	2e	sus-
.	.	4c	-pe	.	.	.	.
.	.	4c	de-	.	.	4e	-ci-
.	.	4c	-pre-	.	.	4e	-pe
=57	=57	=57	=57	=57	=57	=57	=57
*	*	*	*	*	*	*	*edit
1r	.	4B-y	-ca-	1r	.	4.d	de-
.	.	4B-y	-ti-	.	.	.	.
.	.	.	.	.	.	8e	.
.	.	4A	-o-	.	.	8fL	.
.	.	.	.	.	.	8gJ	.
.	.	[4F	.	.	.	[4a	.
!!LO:LB:g=original
=58	=58	=58	=58	=58	=58	=58	=58
1r	.	8FL]	.	4A	De-	4a]	.
.	.	8EJ	.	.	.	.	.
.	.	4C	.	4A	-pre-	2g	-pre-
.	.	2D	-nem.	4A	-ca-	.	.
.	.	.	.	4A	-ti-	4f#i	.
=59	=59	=59	=59	=59	=59	=59	=59
1r	.	1r	.	4.G	-o-	4.g	-ca-
.	.	.	.	8A	.	8f	.
.	.	.	.	8B-yL	.	8dL	.
.	.	.	.	8cJ	.	8cJ	.
.	.	.	.	[4d	.	4f	-ti-
=60	=60	=60	=60	=60	=60	=60	=60
1r	.	1r	.	4d]	.	4e	-o-
.	.	.	.	2c	-nem	4c	-nem
.	.	.	.	.	.	2d	no-
.	.	.	.	4Bni	no-	.	.
=61	=61	=61	=61	=61	=61	=61	=61
*	*Xedit	*	*	*	*	*	*
2AA	Qui	1r	.	4c	-stram.	2c	-stram.
.	.	.	.	4C	Qui	.	.
4AA	se-	.	.	4E	se-	2r	.
4AA	-des	.	.	4F	-des	.	.
=62	=62	=62	=62	=62	=62	=62	=62
*	*edit	*	*	*	*	*	*
4.GG	ad	1r	.	4E	ad	1r	.
.	.	.	.	2G	dex-	.	.
8AA	.	.	.	.	.	.	.
8BB-yL	.	.	.	.	.	.	.
8CJ	.	.	.	.	.	.	.
*lig	*	*	*	*	*	*	*
[4D	.	.	.	4F	-te-	.	.
!!LO:PB:g=original
=63	=63	=63	=63	=63	=63	=63	=63
4D]	.	1r	.	4E	-ram	1r	.
2C	dex-	.	.	4C	.	.	.
*Xlig	*	*	*	*	*	*	*
.	.	.	.	2D	Pa-	.	.
4BBni	-te-	.	.	.	.	.	.
=64	=64	=64	=64	=64	=64	=64	=64
2C	-ram,	4r	.	2C	-tris,	1r	.
.	.	4c	Qui	.	.	.	.
4E	qui	4c	se-	2r	.	.	.
4F	se-	4c	-des	.	.	.	.
=65	=65	=65	=65	=65	=65	=65	=65
4E	-des	4.c	ad	1r	.	1r	.
2F	ad	.	.	.	.	.	.
.	.	8B-y	.	.	.	.	.
.	.	4A	.	.	.	.	.
8EL	dex-	4c	dex-	.	.	.	.
8DJ	.	.	.	.	.	.	.
=66	=66	=66	=66	=66	=66	=66	=66
4C	-te-	4c	-te-	1r	.	1r	.
4F	-ram	4c	-ram	.	.	.	.
4G	Pa-	4B-y	Pa-	.	.	.	.
4F	-tris.	4A	-tris.	.	.	.	.
=67	=67	=67	=67	=67	=67	=67	=67
*	*	*	*	*	*	*	*Xedit
1r	.	1r	.	4.A	mi-	4.cc	Mi-
.	.	.	.	8A	-se-	8cc	-se-
.	.	.	.	8AL	-re-	4cc	-re-
.	.	.	.	8B-y	.	.	.
.	.	.	.	8c	.	4cc	-re
.	.	.	.	8dJ	.	.	.
!!LO:LB:g=original
=68	=68	=68	=68	=68	=68	=68	=68
*	*	*	*	*	*	*	*edit
1r	.	1r	.	4e	.	8ccL	no-
.	.	.	.	.	.	8b-y	.
.	.	.	.	8fL	-re	8a	.
.	.	.	.	8eJ	.	8gJ	.
.	.	.	.	8dL	.	8fL	.
.	.	.	.	8cJ	.	8eJ	.
.	.	.	.	4e	.	4cc	.
=69	=69	=69	=69	=69	=69	=69	=69
1r	.	1r	.	4d	.	4b-y	.
.	.	.	.	4c	.	2a	.
.	.	.	.	2B-y	no-	.	.
.	.	.	.	.	.	4g	.
=70	=70	=70	=70	=70	=70	=70	=70
*	*	*	*	*	*	*col	*
*	*	*	*	*col	*	*	*
2r	.	2r	.	3.A	-bis.	3.a	-bis.
*	*Xedit	*	*Xedit	*	*	*	*
*	*	*col	*	*	*	*	*
*col	*	*	*	*	*	*	*
6F	Quo-	6A	Quo-	2r	.	2r	.
6F	-ni-	6A	-ni-	.	.	.	.
6F	-am	6A	-am	.	.	.	.
=71	=71	=71	=71	=71	=71	=71	=71
3F	tu	3A	tu	1r	.	1r	.
3D	.	6B-y	.	.	.	.	.
.	.	3A	so-	.	.	.	.
3D	so-	.	.	.	.	.	.
.	.	12GL	.	.	.	.	.
.	.	12FJ	.	.	.	.	.
=72	=72	=72	=72	=72	=72	=72	=72
!LO:TUP:r=2	!	!	!	!	!	!	!
3.C	-lus	6.E	-lus	1r	.	1r	.
.	.	12F	.	.	.	.	.
.	.	6G	.	.	.	.	.
*	*edit	*	*	*	*	*	*
6AA	San-	3F	san-	.	.	.	.
3GG	.	.	.	.	.	.	.
.	.	6E	.	.	.	.	.
!!LO:LB:g=original
=73	=73	=73	=73	=73	=73	=73	=73
3FF	-ctus.	3F	-ctus.	3A	Tu	2r	.
6r	.	6r	.	6B-y	.	.	.
*	*	*	*	*	*	*	*Xedit
2r	.	2r	.	6A	so-	3a	Tu
.	.	.	.	6F	.	.	.
.	.	.	.	6G	.	6b-y	.
=74	=74	=74	=74	=74	=74	=74	=74
!	!	!	!	!LO:TUP:r=2	!	!	!
1r	.	1r	.	6.F	-lus	3a	so-
.	.	.	.	12GL	.	.	.
.	.	.	.	12A	.	12gL	.
.	.	.	.	12B-yJ	.	12fJ	.
.	.	.	.	3.c	.	6.e	-lus
.	.	.	.	.	.	12f	.
.	.	.	.	.	.	6g	.
=75	=75	=75	=75	=75	=75	=75	=75
*	*	*	*	*	*	*	*edit
2r	.	2r	.	6A	Do-	3f	Do-
.	.	.	.	3G	-mi-	.	.
.	.	.	.	.	.	6e	-mi-
6r	.	6r	.	3F	-nus.	3f	-nus.
6r	.	6r	.	.	.	.	.
*	*	*	*edit	*	*	*	*
6F	Tu	6F	Tu	6r	.	6r	.
=76	=76	=76	=76	=76	=76	=76	=76
3D	so-	3A	so-	1r	.	1r	.
6BB-y	.	6B-y	.	.	.	.	.
!	!	!LO:TUP:r=2	!	!	!	!	!
6.AA	.	6.c	.	.	.	.	.
12BB-y	.	12B-yL	.	.	.	.	.
6C	.	12A	.	.	.	.	.
.	.	12GJ	.	.	.	.	.
=77	=77	=77	=77	=77	=77	=77	=77
3FF	-lus	3A	-lus	6r	.	6r	.
.	.	.	.	6r	.	6r	.
*	*	*	*	*	*	*	*Xedit
6r	.	6r	.	6f	Al-	6f	Al-
2r	.	2r	.	3d	-tis-	3a	-tis-
.	.	.	.	6B-y	.	6b-y	.
!!LO:LB:g=original
=78	=78	=78	=78	=78	=78	=78	=78
!	!	!	!	!	!	!LO:TUP:r=2	!
2r	.	2r	.	6.A	-si-	6.cc	-si-
.	.	.	.	12B-y	.	12b-yL	.
.	.	.	.	6c	.	12a	.
.	.	.	.	.	.	12gJ	.
6r	.	6r	.	3F	-mus,	3a	-mus,
6r	.	6r	.	.	.	.	.
6F	Je-	6A	Je-	6f	Je-	6cc	Je-
=79	=79	=79	=79	=79	=79	=79	=79
3F	-su	3A	-su	3f	-su	3cc	-su
6A	Chri-	6A	Chri-	6c	Chri-	6cc	Chri-
3G	-ste.	3B-y	-ste.	6.d	-ste.	3b-y	-ste.
.	.	.	.	12e	.	.	.
6F	.	6c	.	6f	.	6a	.
*Xcol	*	*Xcol	*	*Xcol	*	*Xcol	*
=80	=80	=80	=80	=80	=80	=80	=80
*	*Xedit	*	*Xedit	*	*	*	*
2F	Cum	2c	Cum	2f	Cum	2a	Cum
4F	San-	4c	San-	4f	San-	4a	San-
4F	-cto	4c	-cto	4f	-cto	4a	-cto
=81	=81	=81	=81	=81	=81	=81	=81
*	*edit	*	*	*	*	*	*edit
2.G	Spi-	2.B-y	Spi-	4.d	Spi-	8gL	Spi-
.	.	.	.	.	.	8a	.
.	.	.	.	.	.	8b-y	.
.	.	.	.	8e	.	8ccJ	.
.	.	.	.	8dL	.	4dd	.
.	.	.	.	8eJ	.	.	.
4A	-ri-	4c	-ri-	4f	-ri-	[4cc	-ri-
!!LO:PB:g=original
=82	=82	=82	=82	=82	=82	=82	=82
2G	-tu,	2d	.	2g	-tu,	4cc]	.
.	.	.	.	.	.	4bni	.
2A	in	4c	-tu,	2e	in	2cc	-tu,
*	*	*	*edit	*	*	*	*
.	.	4c	in	.	.	.	.
=83	=83	=83	=83	=83	=83	=83	=83
4.F	glo-	4.c	glo-	4.f	glo-	4r	.
*	*	*	*	*	*	*	*Xedit
.	.	.	.	.	.	4cc	in
8F	-ri-	8B-y	-ri-	8f	-ri-	.	.
2F	-a	2A	-a	4.f	-a	4.cc	glo-
.	.	.	.	8d	.	8cc	-ri-
=84	=84	=84	=84	=84	=84	=84	=84
4r	.	2c	De-	2e	.	4a	-a
*	*	*	*	*	*	*	*edit
4A	De-	.	.	.	.	4cc	De-
4G	-i	4d	-i	2r	.	4b-y	-i
4F	Pa-	4A	Pa-	.	.	[4a	Pa-
=85	=85	=85	=85	=85	=85	=85	=85
2G	.	2B-y	.	4d	De-	4a]	.
.	.	.	.	4d	-i	4g	.
2D	-tris.	2A	-tris.	2d	Pa-	2a	-tris.
=86	=86	=86	=86	=86	=86	=86	=86
*	*	*	*	*	*	*	*Xedit
4GG	A-	4G	A-	8.dL	-tris.	4b-y	A-
.	.	.	.	16eJk	.	.	.
4D	.	4A	.	4f	.	4a	.
4GG	.	4B-y	.	4g	.	4.g	.
8r	.	8r	.	8dL	.	.	.
8G	.	8G	.	8eJ	.	8b-y	.
=87	=87	=87	=87	=87	=87	=87	=87
4F	.	4A	.	4f	.	4a	.
4G	.	4B-y	.	4d	.	4g	.
4GG	.	4G	.	8r	.	8r	.
.	.	.	.	8g	A-	8b-y	.
4D	.	8r	.	4f	.	4a	.
.	.	8A	.	.	.	.	.
!!LO:LB:g=original
=88	=88	=88	=88	=88	=88	=88	=88
4GG	.	4B-y	.	4g	.	4g	.
8r	.	4G	.	8.dL	.	8r	.
8G	.	.	.	.	.	8b-y	.
.	.	.	.	16eJk	.	.	.
8FL	.	4c	.	8fL	.	8aL	.
8EJ	.	.	.	8gJ	.	8g	.
4G	.	4B-y	.	4d	.	8b-y	.
.	.	.	.	.	.	8aJ	.
=89	=89	=89	=89	=89	=89	=89	=89
4.C	.	4r	.	4e	.	8gL	.
.	.	.	.	.	.	8f	.
.	.	4G	.	4.c	.	8e	.
8BB-y	.	.	.	.	.	8dJ	.
*	*	*	*	*	*	*	*edit
8AAL	.	8.AL	.	.	.	2c	-men,
8GGJ	.	.	.	8B-y	.	.	.
.	.	16B-yJk	.	.	.	.	.
4FF	.	4c	-men.	4A	.	.	.
=90	=90	=90	=90	=90	=90	=90	=90
4GG	-men,	4r	.	4G	-men.	8b-yL	a-
.	.	.	.	.	.	8a	.
8GL	a-	4d	a-	4r	.	8b-y	.
8FJ	.	.	.	.	.	8aJ	.
4G	.	4B-y	.	4d	a-	8b-yL	.
.	.	.	.	.	.	8a	.
[4C	.	4c	.	4e	.	8g	.
.	.	.	.	.	.	8fJ	.
=91	=91	=91	=91	=91	=91	=91	=91
8CL]	.	4G	.	4c	.	8eL	.
8BB-yJ	.	.	.	.	.	8dJ	.
4GG	.	4B-y	.	4d	.	2g	.
4AA	.	4c	.	4A	.	.	.
4FF	.	4A	.	[4c	.	[4f	.
=92	=92	=92	=92	=92	=92	=92	=92
2C	.	2G	.	2c]	.	4f]	.
.	.	.	.	.	.	4e	.
*	*	*	*	*	*	*	*Xedit
2FFl	-men.	2Fl	-men.	2cl	men.	2fl	men.
==	==	==	==	==	==	==	==
*-	*-	*-	*-	*-	*-	*-	*-
!!!system-decoration: [*]
!!!RDF**kern: j = editorial accidental, optional, paren up
!!!RDF**kern: i = editorial accidental
!!!RDF**kern: l = terminal breve
!!!PTL: Gaspar van Weerbeke: Collected Works. Collected Works. II. Masses, Part 2
!!!ISBN: 978-1-59551-518-6
!!!PPR: American Institute of Musicology
!!!PC#: Corpus Mensurabilis Musicae 106/II.2
!!!PDT: 2018
!!!PED: Kolb, Paul
!!!YEC: Copyright 2016, Kolb, Paul
!!!YEM: CC-BY-NC 4.0 (https://creativecommons.org/licenses/by-nc/4.0/legalcode)
!!!EED: Zybina, Karina
!!!EEV: 2021/11/07
!!!RDF**kern: @ = marked note
!!!title: @{OPR} &mdash; @{OTL}
!!!muse2ps: C^@{COM}^i2I150v90,90,90,120c122z18l2700t130
